; generated by Slic3r Prusa Edition 1.39.1-prusa3d-linux64 on 2018-03-10 at 15:47:46

; 

; external perimeters extrusion width = 0.45mm
; perimeters extrusion width = 0.45mm
; infill extrusion width = 0.45mm
; solid infill extrusion width = 0.45mm
; top infill extrusion width = 0.45mm
; first layer extrusion width = 0.42mm

M107
M115 U3.1.0 ; tell printer latest fw version
M201 X9000 Y9000 Z500 E10000 ; sets maximum accelerations, mm/sec^2
M203 X500 Y500 Z12 E120 ; sets maximum feedrates, mm/sec
M204 S1500 T1500 ; sets acceleration (S) and retract acceleration (T)
M205 X10 Y10 Z0.2 E2.5 ; sets the jerk limits, mm/sec
M205 S0 T0 ; sets the minimum extruding and travel feed rate, mm/sec
M83  ; extruder relative mode
M104 S210 ; set extruder temp
M140 S50 ; set bed temp
M190 S50 ; wait for bed temp
M109 S210 ; wait for extruder temp
G28 W ; home all without mesh bed level
G80 ; mesh bed leveling
G1 Y-3.0 F1000.0 ; go outside print area
G92 E0.0
G1 X60.0 E9.0  F1000.0 ; intro line
G1 X100.0 E12.5  F1000.0 ; intro line
G92 E0.0
M900 K10; Filament gcode
G21 ; set units to millimeters
G90 ; use absolute coordinates
M83 ; use relative distances for extrusion
;BEFORE_LAYER_CHANGE
;0.2


G1 E-0.80000 F2100.00000
G1 Z0.600 F7200.000
;AFTER_LAYER_CHANGE
;0.2
G1 X124.340 Y101.125 F7200.000
G1 Z0.200 F7200.000
G1 E0.80000 F2100.00000
M204 S1000
G1 F840
G1 X125.148 Y100.152 E0.04757
G1 X126.254 Y99.257 E0.05353
G1 X127.372 Y98.667 E0.04757
G1 X128.736 Y98.263 E0.05353
G1 X130.000 Y98.146 E0.04774
G1 X131.415 Y98.295 E0.05353
G1 X132.618 Y98.668 E0.04741
G1 X133.869 Y99.347 E0.05353
G1 X134.841 Y100.155 E0.04757
G1 X135.737 Y101.260 E0.05354
G1 X136.327 Y102.379 E0.04757
G1 X136.731 Y103.743 E0.05353
G1 X136.848 Y105.002 E0.04757
G1 X136.699 Y106.417 E0.05354
G1 X136.325 Y107.624 E0.04757
G1 X135.647 Y108.875 E0.05353
G1 X134.839 Y109.848 E0.04757
G1 X133.733 Y110.743 E0.05353
G1 X132.615 Y111.333 E0.04757
G1 X131.251 Y111.737 E0.05353
G1 X129.992 Y111.854 E0.04757
G1 X128.577 Y111.706 E0.05353
G1 X127.369 Y111.332 E0.04757
G1 X126.119 Y110.653 E0.05354
G1 X125.146 Y109.845 E0.04757
G1 X124.250 Y108.740 E0.05353
G1 X123.661 Y107.621 E0.04758
G1 X123.256 Y106.257 E0.05353
G1 X123.139 Y104.998 E0.04757
G1 X123.288 Y103.583 E0.05353
G1 X123.662 Y102.376 E0.04757
G1 X124.312 Y101.178 E0.05128
G1 X124.642 Y101.357 F7200.000
G1 F840
G1 X125.415 Y100.419 E0.04572
G1 X126.463 Y99.570 E0.05076
G1 X127.516 Y99.015 E0.04478
G1 X128.810 Y98.632 E0.05076
G1 X129.999 Y98.523 E0.04494
G1 X131.337 Y98.664 E0.05061
G1 X132.474 Y99.017 E0.04479
G1 X133.659 Y99.660 E0.05076
G1 X134.575 Y100.421 E0.04478
G1 X135.423 Y101.470 E0.05076
G1 X135.978 Y102.523 E0.04478
G1 X136.361 Y103.816 E0.05076
G1 X136.471 Y105.001 E0.04478
G1 X136.329 Y106.343 E0.05076
G1 X135.977 Y107.480 E0.04478
G1 X135.333 Y108.665 E0.05076
G1 X134.573 Y109.581 E0.04478
G1 X133.524 Y110.430 E0.05076
G1 X132.471 Y110.985 E0.04478
G1 X131.177 Y111.368 E0.05076
G1 X129.992 Y111.477 E0.04478
G1 X128.650 Y111.336 E0.05076
G1 X127.514 Y110.983 E0.04478
G1 X126.328 Y110.340 E0.05076
G1 X125.413 Y109.579 E0.04478
G1 X124.564 Y108.530 E0.05076
G1 X124.009 Y107.477 E0.04479
G1 X123.626 Y106.184 E0.05076
G1 X123.517 Y104.999 E0.04478
G1 X123.658 Y103.657 E0.05076
G1 X124.010 Y102.520 E0.04478
G1 X124.613 Y101.410 E0.04754
G1 X124.943 Y101.589 F7200.000
G1 F840
G1 X125.681 Y100.686 E0.04389
G1 X126.673 Y99.884 E0.04798
G1 X127.661 Y99.364 E0.04200
G1 X128.883 Y99.002 E0.04798
G1 X129.999 Y98.900 E0.04215
G1 X131.263 Y99.034 E0.04783
G1 X132.329 Y99.365 E0.04201
G1 X133.450 Y99.974 E0.04797
G1 X134.308 Y100.688 E0.04200
G1 X135.110 Y101.679 E0.04798
G1 X135.630 Y102.667 E0.04200
G1 X135.991 Y103.890 E0.04798
G1 X136.094 Y105.001 E0.04200
G1 X135.960 Y106.270 E0.04798
G1 X135.629 Y107.336 E0.04200
G1 X135.020 Y108.456 E0.04798
G1 X134.306 Y109.314 E0.04200
G1 X133.314 Y110.116 E0.04798
G1 X132.327 Y110.636 E0.04200
G1 X131.104 Y110.998 E0.04798
G1 X129.992 Y111.100 E0.04200
G1 X128.724 Y110.966 E0.04798
G1 X127.658 Y110.635 E0.04200
G1 X126.538 Y110.026 E0.04798
G1 X125.679 Y109.312 E0.04200
G1 X124.877 Y108.321 E0.04798
G1 X124.357 Y107.333 E0.04201
G1 X123.996 Y106.110 E0.04798
G1 X123.894 Y104.999 E0.04200
G1 X124.028 Y103.731 E0.04797
G1 X124.359 Y102.664 E0.04200
G1 X124.914 Y101.642 E0.04379
G1 F5760
G1 X125.681 Y100.686 E-0.42450
G1 F5760
G1 X126.434 Y100.076 E-0.33550
G1 E-0.04000 F2100.00000
G1 Z0.800 F7200.000
G1 X128.789 Y103.993 F7200.000
G1 Z0.200 F7200.000
G1 E0.80000 F2100.00000
G1 F840
G1 X128.826 Y103.931 E0.00274
G1 X129.325 Y103.565 E0.02324
G1 X129.925 Y103.418 E0.02324
G1 X130.535 Y103.512 E0.02324
G1 X131.063 Y103.833 E0.02324
G1 X131.428 Y104.331 E0.02324
G1 X131.575 Y104.931 E0.02324
G1 X131.481 Y105.541 E0.02324
G1 X131.161 Y106.069 E0.02324
G1 X130.663 Y106.435 E0.02324
G1 X130.063 Y106.582 E0.02324
G1 X129.452 Y106.488 E0.02324
G1 X128.924 Y106.167 E0.02324
G1 X128.559 Y105.669 E0.02324
G1 X128.412 Y105.069 E0.02324
G1 X128.506 Y104.459 E0.02324
G1 X128.758 Y104.044 E0.01825
G1 X129.080 Y104.240 F7200.000
G1 F840
G1 X129.110 Y104.190 E0.00217
G1 X129.487 Y103.914 E0.01760
G1 X129.941 Y103.803 E0.01760
G1 X130.404 Y103.874 E0.01760
G1 X130.803 Y104.116 E0.01760
G1 X131.080 Y104.493 E0.01760
G1 X131.191 Y104.948 E0.01760
G1 X131.120 Y105.410 E0.01760
G1 X130.877 Y105.810 E0.01760
G1 X130.500 Y106.086 E0.01760
G1 X130.046 Y106.197 E0.01760
G1 X129.584 Y106.126 E0.01760
G1 X129.184 Y105.884 E0.01760
G1 X128.907 Y105.507 E0.01760
G1 X128.796 Y105.052 E0.01760
G1 X128.867 Y104.590 E0.01760
G1 X129.049 Y104.291 E0.01317
G1 X129.371 Y104.487 F7200.000
G1 F840
G1 X129.393 Y104.450 E0.00161
G1 X129.650 Y104.262 E0.01195
G1 X129.958 Y104.187 E0.01195
G1 X130.272 Y104.235 E0.01195
G1 X130.544 Y104.400 E0.01195
G1 X130.731 Y104.656 E0.01195
G1 X130.807 Y104.964 E0.01195
G1 X130.759 Y105.278 E0.01195
G1 X130.594 Y105.550 E0.01195
G1 X130.338 Y105.738 E0.01195
G1 X130.029 Y105.813 E0.01195
G1 X129.715 Y105.765 E0.01195
G1 X129.444 Y105.600 E0.01195
G1 X129.256 Y105.344 E0.01195
G1 X129.180 Y105.036 E0.01195
G1 X129.229 Y104.722 E0.01195
G1 X129.340 Y104.538 E0.00809
G1 X129.348 Y104.451 F7200.000
G1 F5760
G1 X129.393 Y104.450 E-0.03558
G1 F5760
G1 X129.650 Y104.262 E-0.11002
G1 F5760
G1 X129.958 Y104.187 E-0.11002
G1 F5760
G1 X130.272 Y104.235 E-0.11002
G1 F5760
G1 X130.544 Y104.400 E-0.11002
G1 F5760
G1 X130.731 Y104.656 E-0.11002
G1 F5760
G1 X130.807 Y104.964 E-0.11002
G1 F5760
G1 X130.779 Y105.148 E-0.06430
G1 E-0.04000 F2100.00000
G1 Z0.800 F7200.000
G1 X131.402 Y102.837 F7200.000
G1 Z0.200 F7200.000
G1 E0.80000 F2100.00000
G1 F840
G1 X131.557 Y102.945 E0.00712
G1 X131.827 Y103.182 E0.01350
G1 X132.109 Y103.519 E0.01654
G1 X132.224 Y103.700 E0.00808
G1 X132.383 Y104.022 E0.01350
G1 X132.512 Y104.431 E0.01614
G1 X132.567 Y104.785 E0.01350
G1 X132.576 Y105.000 E0.00808
G1 X132.567 Y105.215 E0.00808
G1 X132.512 Y105.569 E0.01350
G1 X132.381 Y105.983 E0.01632
G1 X132.260 Y106.236 E0.01056
G1 X132.105 Y106.487 E0.01110
G1 X131.820 Y106.826 E0.01668
G1 X131.433 Y107.142 E0.01879
G1 X131.180 Y107.293 E0.01110
G1 X130.982 Y107.386 E0.00822
G1 X130.553 Y107.521 E0.01694
G1 X130.341 Y107.558 E0.00808
G1 X129.983 Y107.582 E0.01350
G1 X129.545 Y107.543 E0.01654
G1 X129.336 Y107.497 E0.00808
G1 X128.996 Y107.381 E0.01350
G1 X128.565 Y107.150 E0.01839
G1 X128.329 Y106.974 E0.01110
G1 X128.168 Y106.826 E0.00822
G1 X128.023 Y106.668 E0.00808
G1 X127.810 Y106.378 E0.01350
G1 X127.608 Y105.988 E0.01654
G1 X127.534 Y105.786 E0.00808
G1 X127.449 Y105.438 E0.01350
G1 X127.411 Y105.000 E0.01654
G1 X127.451 Y104.552 E0.01694
G1 X127.497 Y104.342 E0.00808
G1 X127.612 Y104.002 E0.01350
G1 X127.810 Y103.622 E0.01614
G1 X128.023 Y103.332 E0.01350
G1 X128.168 Y103.174 E0.00808
G1 X128.512 Y102.885 E0.01694
G1 X128.694 Y102.769 E0.00808
G1 X129.006 Y102.615 E0.01310
G1 X129.336 Y102.503 E0.01310
G1 X129.763 Y102.428 E0.01632
G1 X130.043 Y102.419 E0.01056
G1 X130.337 Y102.441 E0.01110
G1 X130.770 Y102.537 E0.01668
G1 X130.982 Y102.614 E0.00848
G1 X131.351 Y102.805 E0.01564
G1 X131.540 Y102.478 F7200.000
G1 F840
G1 X131.790 Y102.648 E0.01139
G1 X132.091 Y102.912 E0.01505
G1 X132.418 Y103.302 E0.01917
G1 X132.553 Y103.515 E0.00947
G1 X132.730 Y103.873 E0.01505
G1 X132.882 Y104.353 E0.01893
G1 X132.942 Y104.748 E0.01505
G1 X132.942 Y105.252 E0.01893
G1 X132.882 Y105.647 E0.01505
G1 X132.816 Y105.890 E0.00947
G1 X132.729 Y106.129 E0.00958
G1 X132.591 Y106.417 E0.01200
G1 X132.416 Y106.701 E0.01256
G1 X132.261 Y106.902 E0.00956
G1 X131.899 Y107.265 E0.01928
G1 X131.643 Y107.456 E0.01200
G1 X131.356 Y107.627 E0.01256
G1 X130.884 Y107.823 E0.01926
G1 X130.386 Y107.933 E0.01917
G1 X129.987 Y107.959 E0.01505
G1 X129.736 Y107.948 E0.00947
G1 X129.234 Y107.860 E0.01917
G1 X128.855 Y107.732 E0.01505
G1 X128.630 Y107.627 E0.00934
G1 X128.356 Y107.464 E0.01200
G1 X128.088 Y107.264 E0.01256
G1 X127.731 Y106.907 E0.01901
G1 X127.494 Y106.585 E0.01505
G1 X127.368 Y106.367 E0.00947
G1 X127.173 Y105.896 E0.01917
G1 X127.078 Y105.508 E0.01505
G1 X127.045 Y105.258 E0.00947
G1 X127.045 Y104.742 E0.01941
G1 X127.133 Y104.240 E0.01917
G1 X127.262 Y103.862 E0.01505
G1 X127.368 Y103.633 E0.00947
G1 X127.494 Y103.415 E0.00947
G1 X127.731 Y103.093 E0.01505
G1 X128.091 Y102.733 E0.01917
G1 X128.508 Y102.440 E0.01917
G1 X128.861 Y102.266 E0.01481
G1 X129.234 Y102.140 E0.01481
G1 X129.732 Y102.052 E0.01904
G1 X130.051 Y102.042 E0.01200
G1 X130.384 Y102.066 E0.01256
G1 X130.884 Y102.177 E0.01926
G1 X131.126 Y102.266 E0.00972
G1 X131.488 Y102.448 E0.01524
G1 X131.676 Y102.122 F7200.000
G1 F840
G1 X132.023 Y102.351 E0.01565
G1 X132.355 Y102.642 E0.01660
G1 X132.550 Y102.855 E0.01087
G1 X132.727 Y103.086 E0.01095
G1 X132.882 Y103.329 E0.01087
G1 X133.078 Y103.725 E0.01660
G1 X133.176 Y103.996 E0.01087
G1 X133.251 Y104.275 E0.01087
G1 X133.318 Y104.711 E0.01660
G1 X133.331 Y105.000 E0.01087
G1 X133.318 Y105.289 E0.01087
G1 X133.251 Y105.725 E0.01660
G1 X133.176 Y106.004 E0.01087
G1 X133.077 Y106.276 E0.01091
G1 X132.922 Y106.598 E0.01345
G1 X132.726 Y106.915 E0.01403
G1 X132.550 Y107.145 E0.01090
G1 X132.353 Y107.360 E0.01095
G1 X132.140 Y107.556 E0.01091
G1 X131.853 Y107.770 E0.01345
G1 X131.533 Y107.961 E0.01403
G1 X131.271 Y108.083 E0.01090
G1 X130.997 Y108.183 E0.01095
G1 X130.716 Y108.258 E0.01095
G1 X130.431 Y108.308 E0.01087
G1 X129.991 Y108.337 E0.01660
G1 X129.703 Y108.324 E0.01087
G1 X129.414 Y108.286 E0.01095
G1 X129.132 Y108.224 E0.01087
G1 X128.714 Y108.082 E0.01660
G1 X128.454 Y107.961 E0.01082
G1 X128.146 Y107.778 E0.01345
G1 X127.847 Y107.555 E0.01403
G1 X127.634 Y107.360 E0.01090
G1 X127.439 Y107.147 E0.01087
G1 X127.178 Y106.791 E0.01660
G1 X127.033 Y106.541 E0.01087
G1 X126.910 Y106.277 E0.01095
G1 X126.812 Y106.006 E0.01087
G1 X126.707 Y105.577 E0.01660
G1 X126.669 Y105.291 E0.01087
G1 X126.656 Y105.000 E0.01095
G1 X126.669 Y104.709 E0.01095
G1 X126.707 Y104.421 E0.01095
G1 X126.770 Y104.139 E0.01087
G1 X126.911 Y103.721 E0.01660
G1 X127.033 Y103.459 E0.01087
G1 X127.178 Y103.209 E0.01087
G1 X127.439 Y102.853 E0.01660
G1 X127.634 Y102.640 E0.01087
G1 X127.848 Y102.444 E0.01095
G1 X128.079 Y102.266 E0.01095
G1 X128.323 Y102.111 E0.01087
G1 X128.717 Y101.917 E0.01651
G1 X129.132 Y101.776 E0.01651
G1 X129.414 Y101.714 E0.01087
G1 X129.701 Y101.676 E0.01091
G1 X130.059 Y101.664 E0.01345
G1 X130.431 Y101.692 E0.01403
G1 X130.716 Y101.742 E0.01090
G1 X130.997 Y101.817 E0.01095
G1 X131.271 Y101.917 E0.01095
G1 X131.624 Y102.092 E0.01484
G1 X131.674 Y102.522 F7200.000
G1 F5760
G1 X132.023 Y102.351 E-0.16483
G1 F5760
G1 X132.355 Y102.642 E-0.15277
G1 F5760
G1 X132.550 Y102.855 E-0.10004
G1 F5760
G1 X132.727 Y103.086 E-0.10083
G1 F5760
G1 X132.882 Y103.329 E-0.10004
G1 F5760
G1 X133.063 Y103.696 E-0.14148
G1 E-0.04000 F2100.00000
G1 Z0.800 F7200.000
G1 X128.614 Y103.736 F7200.000
G1 Z0.200 F7200.000
G1 E0.80000 F2100.00000
G1 F840
G1 X129.203 Y103.304 E0.02791
G1 X129.912 Y103.130 E0.02791
G1 X130.634 Y103.241 E0.02791
G1 X131.258 Y103.620 E0.02791
G1 X131.690 Y104.209 E0.02791
G1 X131.863 Y104.918 E0.02791
G1 X131.752 Y105.640 E0.02791
G1 X131.373 Y106.264 E0.02791
G1 X130.784 Y106.696 E0.02791
G1 X130.075 Y106.870 E0.02791
G1 X129.354 Y106.759 E0.02791
G1 X128.729 Y106.380 E0.02792
G1 X128.298 Y105.791 E0.02791
G1 X128.124 Y105.082 E0.02791
G1 X128.235 Y104.360 E0.02791
G1 X128.583 Y103.787 E0.02562
G1 X128.241 Y103.512 F7200.000
G1 F840
G1 X128.364 Y103.379 E0.00691
G1 X128.680 Y103.113 E0.01579
G1 X128.832 Y103.016 E0.00691
G1 X129.114 Y102.877 E0.01201
G1 X129.406 Y102.778 E0.01177
G1 X129.792 Y102.710 E0.01498
G1 X130.037 Y102.703 E0.00939
G1 X130.296 Y102.721 E0.00992
G1 X130.691 Y102.809 E0.01545
G1 X130.868 Y102.874 E0.00720
G1 X131.234 Y103.064 E0.01579
G1 X131.382 Y103.168 E0.00691
G1 X131.624 Y103.380 E0.01229
G1 X131.880 Y103.686 E0.01527
G1 X131.977 Y103.839 E0.00692
G1 X132.120 Y104.127 E0.01230
G1 X132.236 Y104.495 E0.01475
G1 X132.285 Y104.813 E0.01230
G1 X132.293 Y105.000 E0.00715
G1 X132.285 Y105.187 E0.00715
G1 X132.236 Y105.505 E0.01229
G1 X132.118 Y105.878 E0.01498
G1 X132.011 Y106.100 E0.00939
G1 X131.875 Y106.320 E0.00992
G1 X131.620 Y106.624 E0.01515
G1 X131.270 Y106.910 E0.01728
G1 X130.879 Y107.122 E0.01700
G1 X130.485 Y107.246 E0.01579
G1 X130.307 Y107.277 E0.00691
G1 X129.986 Y107.298 E0.01229
G1 X129.588 Y107.263 E0.01527
G1 X129.412 Y107.224 E0.00692
G1 X129.109 Y107.121 E0.01222
G1 X128.717 Y106.911 E0.01699
G1 X128.509 Y106.755 E0.00993
G1 X128.241 Y106.488 E0.01446
G1 X128.051 Y106.229 E0.01229
G1 X127.867 Y105.874 E0.01527
G1 X127.805 Y105.704 E0.00692
G1 X127.729 Y105.392 E0.01229
G1 X127.695 Y105.000 E0.01503
G1 X127.731 Y104.595 E0.01556
G1 X127.770 Y104.418 E0.00691
G1 X127.873 Y104.114 E0.01230
G1 X128.051 Y103.771 E0.01475
G1 X128.206 Y103.560 E0.01000
;BEFORE_LAYER_CHANGE
;0.4


G1 F5760
G1 X128.051 Y103.771 E-0.09063
G1 F5760
G1 X127.873 Y104.114 E-0.13362
G1 F5760
G1 X127.770 Y104.418 E-0.11141
G1 F5760
G1 X127.731 Y104.595 E-0.06261
G1 F5760
G1 X127.695 Y105.000 E-0.14097
G1 F5760
G1 X127.729 Y105.392 E-0.13619
G1 F5760
G1 X127.787 Y105.629 E-0.08457
G1 E-0.04000 F2100.00000
G1 Z0.800 F7200.000
;AFTER_LAYER_CHANGE
;0.4
M104 S215 ; set temperature
G1 X125.048 Y100.055 F7200.000
G1 X125.148 Y100.152 F7200.000
G1 Z0.400 F7200.000
G1 E0.80000 F2100.00000
G1 F1200
G1 X126.254 Y99.257 E0.05353
G1 X127.372 Y98.667 E0.04757
G1 X128.736 Y98.263 E0.05353
G1 X130.000 Y98.146 E0.04774
G1 X131.415 Y98.295 E0.05353
G1 X132.618 Y98.668 E0.04741
G1 X133.869 Y99.347 E0.05353
G1 X134.841 Y100.155 E0.04757
G1 X135.737 Y101.260 E0.05354
G1 X136.327 Y102.379 E0.04757
G1 X136.731 Y103.743 E0.05353
G1 X136.848 Y105.002 E0.04757
G1 X136.699 Y106.417 E0.05354
G1 X136.325 Y107.624 E0.04757
G1 X135.647 Y108.875 E0.05353
G1 X134.839 Y109.848 E0.04757
G1 X133.733 Y110.743 E0.05353
G1 X132.615 Y111.333 E0.04757
G1 X131.251 Y111.737 E0.05353
G1 X129.992 Y111.854 E0.04757
G1 X128.577 Y111.706 E0.05353
G1 X127.369 Y111.332 E0.04757
G1 X126.119 Y110.653 E0.05354
G1 X125.146 Y109.845 E0.04757
G1 X124.250 Y108.740 E0.05353
G1 X123.661 Y107.621 E0.04758
G1 X123.256 Y106.257 E0.05353
G1 X123.139 Y104.998 E0.04757
G1 X123.288 Y103.583 E0.05353
G1 X123.662 Y102.376 E0.04757
G1 X124.340 Y101.125 E0.05353
G1 X125.110 Y100.198 E0.04531
G1 F5760
G1 X126.254 Y99.257 E-0.51319
G1 F5760
G1 X126.884 Y98.924 E-0.24681
G1 E-0.04000 F2100.00000
G1 Z1.000 F7200.000
G1 X128.770 Y103.879 F7200.000
G1 Z0.400 F7200.000
G1 E0.80000 F2100.00000
M204 S800
G1 F1200
G1 X129.292 Y103.496 E0.02630
G1 X129.921 Y103.342 E0.02630
G1 X130.561 Y103.441 E0.02630
G1 X131.115 Y103.776 E0.02630
G1 X131.498 Y104.299 E0.02630
G1 X131.652 Y104.928 E0.02630
G1 X131.553 Y105.568 E0.02630
G1 X131.217 Y106.121 E0.02630
G1 X130.695 Y106.504 E0.02630
G1 X130.066 Y106.658 E0.02630
G1 X129.426 Y106.559 E0.02630
G1 X128.872 Y106.224 E0.02630
G1 X128.490 Y105.701 E0.02630
G1 X128.336 Y105.072 E0.02630
G1 X128.434 Y104.432 E0.02630
G1 X128.739 Y103.930 E0.02386
M204 S1000
G1 X129.076 Y104.159 F7200.000
M204 S800
G1 F1200
