; generated by Slic3r 1.35.5-prusa3d-linux64 on 2018-03-04 at 00:41:13

; 

; external perimeters extrusion width = 0.45mm
; perimeters extrusion width = 0.45mm
; infill extrusion width = 0.45mm
; solid infill extrusion width = 0.45mm
; top infill extrusion width = 0.40mm
; support material extrusion width = 0.35mm
; first layer extrusion width = 0.42mm

M107
M115 U3.0.9 ; tell printer latest fw version
M83  ; extruder relative mode
M104 S215 ; set extruder temp
M140 S55 ; set bed temp
M190 S55 ; wait for bed temp
M109 S215 ; wait for extruder temp
G28 W ; home all without mesh bed level
G80 ; mesh bed leveling
G1 Y-3.0 F1000.0 ; go outside pritn area
G1 X60.0 E9.0  F1000.0 ; intro line
G1 X100.0 E12.5  F1000.0 ; intro line
; Filament gcode

G21 ; set units to millimeters
G90 ; use absolute coordinates
M83 ; use relative distances for extrusion
G1 E-0.80000 F2100.00000
G1 Z0.200 F7200.000
G1 X29.430 Y14.570 F7200.000
G1 E0.80000 F2100.00000
M204 S1000
G1 F900
G1 X29.880 Y13.880 E0.02583
G1 X30.509 Y13.313 E0.02654
G1 X31.252 Y12.931 E0.02619
G1 X32.083 Y12.751 E0.02666
G1 X52.133 Y12.740 E0.62865
G1 X52.727 Y12.796 E0.01872
G1 X53.329 Y12.970 E0.01965
G1 X53.863 Y13.243 E0.01879
G1 X54.332 Y13.604 E0.01856
G1 X54.730 Y14.047 E0.01867
G1 X55.054 Y14.583 E0.01965
G1 X55.262 Y15.145 E0.01880
G1 X55.363 Y15.740 E0.01891
G1 X55.409 Y53.012 E1.16862
G1 X55.327 Y53.718 E0.02231
G1 X55.085 Y54.406 E0.02285
G1 X54.616 Y55.117 E0.02669
G1 X53.952 Y55.699 E0.02772
G1 X53.176 Y56.074 E0.02701
G1 X52.351 Y56.230 E0.02631
G1 X32.351 Y56.235 E0.62709
G1 X31.656 Y56.153 E0.02195
G1 X30.973 Y55.911 E0.02273
G1 X30.228 Y55.413 E0.02810
G1 X29.666 Y54.759 E0.02702
G1 X29.295 Y53.974 E0.02725
G1 X29.145 Y53.117 E0.02726
G1 X29.106 Y15.964 E1.16491
G1 X29.188 Y15.258 E0.02230
G1 X29.410 Y14.627 E0.02097
G1 F5760
G1 X29.880 Y13.880 E-0.30559
G1 F5760
G1 X30.509 Y13.313 E-0.29322
G1 F5760
G1 X30.923 Y13.100 E-0.16118
G1 E-0.04000 F2100.00000
G1 X47.707 Y48.034 F7200.000
G1 E0.80000 F2100.00000
G1 F360
G1 X47.978 Y47.892 E0.00960
G1 X48.266 Y47.802 E0.00944
G1 X48.613 Y47.763 E0.01096
G1 X48.925 Y47.789 E0.00980
G1 X49.273 Y47.891 E0.01136
G1 X49.590 Y48.065 E0.01134
G1 X49.825 Y48.262 E0.00962
G1 X50.044 Y48.534 E0.01096
G1 X50.189 Y48.811 E0.00980
G1 X50.289 Y49.153 E0.01116
G1 X50.315 Y49.453 E0.00944
G1 X50.289 Y49.752 E0.00944
G1 X50.189 Y50.093 E0.01114
G1 X50.047 Y50.366 E0.00964
G1 X49.825 Y50.643 E0.01114
G1 X49.590 Y50.841 E0.00964
G1 X49.278 Y51.011 E0.01114
G1 X48.985 Y51.104 E0.00964
G1 X48.626 Y51.143 E0.01134
G1 X48.266 Y51.104 E0.01134
G1 X47.973 Y51.011 E0.00964
G1 X47.662 Y50.841 E0.01114
G1 X47.426 Y50.643 E0.00964
G1 X47.204 Y50.366 E0.01114
G1 X47.062 Y50.093 E0.00964
G1 X46.963 Y49.752 E0.01114
G1 X46.936 Y49.446 E0.00964
G1 X46.975 Y49.093 E0.01114
G1 X47.067 Y48.800 E0.00964
G1 X47.238 Y48.489 E0.01114
G1 X47.435 Y48.254 E0.00962
G1 X47.661 Y48.072 E0.00908
G1 X47.897 Y48.366 F7200.000
G1 F360
G1 X48.124 Y48.242 E0.00810
G1 X48.344 Y48.172 E0.00724
G1 X48.618 Y48.142 E0.00865
G1 X48.855 Y48.162 E0.00746
G1 X49.128 Y48.241 E0.00889
G1 X49.376 Y48.377 E0.00888
G1 X49.554 Y48.527 E0.00730
G1 X49.727 Y48.742 E0.00865
G1 X49.838 Y48.953 E0.00746
G1 X49.916 Y49.223 E0.00882
G1 X49.937 Y49.453 E0.00724
G1 X49.916 Y49.683 E0.00724
G1 X49.838 Y49.952 E0.00881
G1 X49.730 Y50.159 E0.00731
G1 X49.554 Y50.378 E0.00881
G1 X49.376 Y50.528 E0.00731
G1 X49.130 Y50.663 E0.00881
G1 X48.907 Y50.733 E0.00731
G1 X48.626 Y50.764 E0.00888
G1 X48.344 Y50.733 E0.00888
G1 X48.122 Y50.663 E0.00731
G1 X47.876 Y50.528 E0.00881
G1 X47.697 Y50.378 E0.00731
G1 X47.521 Y50.159 E0.00881
G1 X47.414 Y49.952 E0.00731
G1 X47.335 Y49.683 E0.00881
G1 X47.315 Y49.450 E0.00731
G1 X47.345 Y49.171 E0.00881
G1 X47.415 Y48.949 E0.00731
G1 X47.550 Y48.703 E0.00881
G1 X47.700 Y48.524 E0.00730
G1 X47.850 Y48.403 E0.00604
G1 X47.880 Y48.108 F7200.000
G1 F5760
G1 X48.124 Y48.242 E-0.11001
G1 F5760
G1 X48.344 Y48.172 E-0.07997
G1 F5760
G1 X48.618 Y48.142 E-0.09553
G1 F5760
G1 X48.855 Y48.162 E-0.08246
G1 F5760
G1 X49.128 Y48.241 E-0.09818
G1 F5760
G1 X49.376 Y48.377 E-0.09808
G1 F5760
G1 X49.554 Y48.527 E-0.08067
G1 F5760
G1 X49.727 Y48.742 E-0.09553
G1 F5760
G1 X49.753 Y48.792 E-0.01957
G1 E-0.04000 F2100.00000
G1 X37.602 Y49.300 F7200.000
G1 E0.80000 F2100.00000
G1 F360
G1 X37.616 Y49.459 E0.00501
G1 X37.577 Y49.812 E0.01114
G1 X37.485 Y50.105 E0.00962
G1 X37.317 Y50.412 E0.01096
G1 X37.121 Y50.647 E0.00960
G1 X36.890 Y50.841 E0.00946
G1 X36.578 Y51.011 E0.01114
G1 X36.285 Y51.104 E0.00964
G1 X35.926 Y51.143 E0.01134
G1 X35.566 Y51.104 E0.01134
G1 X35.273 Y51.011 E0.00964
G1 X34.962 Y50.841 E0.01114
G1 X34.727 Y50.643 E0.00962
G1 X34.507 Y50.371 E0.01096
G1 X34.362 Y50.094 E0.00980
G1 X34.263 Y49.752 E0.01116
G1 X34.236 Y49.447 E0.00962
G1 X34.273 Y49.099 E0.01096
G1 X34.367 Y48.801 E0.00980
G1 X34.538 Y48.489 E0.01116
G1 X34.731 Y48.258 E0.00944
G1 X34.962 Y48.065 E0.00944
G1 X35.273 Y47.894 E0.01114
G1 X35.566 Y47.802 E0.00962
G1 X35.913 Y47.763 E0.01096
G1 X36.225 Y47.789 E0.00980
G1 X36.573 Y47.891 E0.01136
G1 X36.890 Y48.065 E0.01134
G1 X37.125 Y48.262 E0.00964
G1 X37.347 Y48.539 E0.01114
G1 X37.489 Y48.812 E0.00964
G1 X37.589 Y49.153 E0.01114
G1 X37.596 Y49.240 E0.00275
G1 X37.221 Y49.273 F7200.000
G1 F360
G1 X37.237 Y49.455 E0.00573
G1 X37.206 Y49.734 E0.00881
G1 X37.136 Y49.956 E0.00730
G1 X37.004 Y50.198 E0.00865
G1 X36.853 Y50.379 E0.00739
G1 X36.676 Y50.528 E0.00725
G1 X36.430 Y50.663 E0.00881
G1 X36.207 Y50.733 E0.00731
G1 X35.926 Y50.764 E0.00888
G1 X35.644 Y50.733 E0.00888
G1 X35.422 Y50.663 E0.00731
G1 X35.176 Y50.528 E0.00881
G1 X34.997 Y50.378 E0.00730
G1 X34.824 Y50.163 E0.00865
G1 X34.714 Y49.952 E0.00746
G1 X34.635 Y49.683 E0.00882
G1 X34.615 Y49.450 E0.00730
G1 X34.644 Y49.176 E0.00865
G1 X34.715 Y48.949 E0.00746
G1 X34.850 Y48.703 E0.00882
G1 X34.999 Y48.526 E0.00724
G1 X35.176 Y48.377 E0.00724
G1 X35.422 Y48.242 E0.00881
G1 X35.644 Y48.172 E0.00730
G1 X35.918 Y48.142 E0.00865
G1 X36.155 Y48.162 E0.00746
G1 X36.428 Y48.241 E0.00889
G1 X36.676 Y48.377 E0.00888
G1 X36.854 Y48.527 E0.00731
G1 X37.030 Y48.746 E0.00881
G1 X37.138 Y48.953 E0.00731
G1 X37.214 Y49.214 E0.00851
G1 X37.392 Y49.336 F7200.000
G1 F5760
G1 X37.237 Y49.455 E-0.08398
G1 F5760
G1 X37.206 Y49.734 E-0.09728
G1 F5760
G1 X37.136 Y49.956 E-0.08067
G1 F5760
G1 X37.004 Y50.198 E-0.09553
G1 F5760
G1 X36.853 Y50.379 E-0.08166
G1 F5760
G1 X36.676 Y50.528 E-0.08004
G1 F5760
G1 X36.430 Y50.663 E-0.09728
G1 F5760
G1 X36.207 Y50.733 E-0.08074
G1 F5760
G1 X36.027 Y50.753 E-0.06282
G1 E-0.04000 F2100.00000
G1 X32.537 Y52.841 F7200.000
G1 E0.80000 F2100.00000
G1 F720
G1 X32.537 Y38.444 E0.45140
G1 X52.014 Y38.445 E0.61068
G1 X52.014 Y52.841 E0.45139
G1 X32.597 Y52.841 E0.60880
G1 X32.295 Y53.193 F7200.000
G1 F540
G1 X32.204 Y53.120 E0.00364
G1 X32.160 Y52.974 E0.00478
G1 X32.160 Y38.316 E0.45961
G1 X32.186 Y38.202 E0.00365
G1 X32.258 Y38.111 E0.00364
G1 X32.404 Y38.067 E0.00478
G1 X52.156 Y38.067 E0.61931
G1 X52.249 Y38.087 E0.00299
G1 X52.322 Y38.136 E0.00275
G1 X52.370 Y38.208 E0.00271
G1 X52.391 Y38.313 E0.00337
G1 X52.391 Y52.967 E0.45947
G1 X52.360 Y53.096 E0.00416
G1 X52.295 Y53.173 E0.00314
G1 X52.147 Y53.218 E0.00485
G1 X32.354 Y53.206 E0.62062
G1 X32.286 Y53.077 F7200.000
G1 X32.820 Y52.474 F7200.000
G1 F720
G1 X32.986 Y52.308 E0.00734
G1 X33.235 Y52.558 E0.01107
G1 X33.269 Y52.558 F7200.000
G1 F720
G1 X33.786 Y52.042 E0.02289
G1 X33.519 Y51.775 E0.01182
G1 X33.252 Y52.042 E0.01182
G1 X32.986 Y51.775 E0.01182
G1 X33.252 Y51.509 E0.01182
G1 X32.986 Y51.242 E0.01182
G1 X32.820 Y51.408 E0.00734
G1 X32.820 Y50.543 F7200.000
G1 F720
G1 X32.986 Y50.709 E0.00734
G1 X33.519 Y50.175 E0.02365
G1 X33.252 Y49.909 E0.01182
G1 X33.519 Y49.642 E0.01182
G1 X34.122 Y50.245 E0.02674
G1 X34.257 Y50.503 F7200.000
G1 F720
G1 X34.052 Y50.709 E0.00910
G1 X33.786 Y50.442 E0.01182
G1 X33.252 Y50.975 E0.02365
G1 X33.519 Y51.242 E0.01182
G1 X33.786 Y50.975 E0.01182
G1 X34.052 Y51.242 E0.01182
G1 X33.786 Y51.509 E0.01182
G1 X34.052 Y51.775 E0.01182
G1 X34.586 Y51.242 E0.02365
G1 X34.319 Y50.975 E0.01182
G1 X34.492 Y50.802 E0.00766
G1 X35.135 Y51.258 F7200.000
G1 F720
G1 X35.385 Y51.509 E0.01110
G1 X35.119 Y51.775 E0.01182
G1 X34.852 Y51.509 E0.01182
G1 X34.319 Y52.042 E0.02365
G1 X34.586 Y52.308 E0.01182
G1 X34.852 Y52.042 E0.01182
G1 X35.119 Y52.308 E0.01182
G1 X34.869 Y52.558 E0.01107
G1 X35.402 Y52.558 F7200.000
G1 F720
G1 X35.652 Y52.308 E0.01107
G1 X35.385 Y52.042 E0.01182
G1 X35.652 Y51.775 E0.01182
G1 X36.435 Y52.558 E0.03472
G1 X36.968 Y52.558 F7200.000
G1 F720
G1 X36.452 Y52.042 E0.02289
G1 X36.719 Y51.775 E0.01182
G1 X36.985 Y52.042 E0.01182
G1 X37.252 Y51.775 E0.01182
G1 X36.985 Y51.509 E0.01182
G1 X37.252 Y51.242 E0.01182
G1 X37.785 Y51.775 E0.02365
G1 X37.519 Y52.042 E0.01182
G1 X37.785 Y52.308 E0.01182
G1 X38.318 Y51.775 E0.02365
G1 X38.052 Y51.509 E0.01182
G1 X38.318 Y51.242 E0.01182
G1 X38.585 Y51.509 E0.01182
G1 X39.118 Y50.975 E0.02365
G1 X38.852 Y50.709 E0.01182
G1 X38.585 Y50.975 E0.01182
G1 X38.318 Y50.709 E0.01182
G1 X38.585 Y50.442 E0.01182
G1 X38.318 Y50.175 E0.01182
G1 X37.785 Y50.709 E0.02365
G1 X38.052 Y50.975 E0.01182
G1 X37.785 Y51.242 E0.01182
G1 X37.353 Y50.810 E0.01916
G1 X37.765 Y50.155 F7200.000
G1 F720
G1 X37.785 Y50.175 E0.00089
G1 X38.585 Y49.375 E0.03547
G1 X38.318 Y49.109 E0.01182
G1 X38.052 Y49.375 E0.01182
G1 X37.877 Y49.201 E0.00776
G1 X37.719 Y48.641 F7200.000
G1 F720
G1 X37.785 Y48.576 E0.00291
G1 X38.052 Y48.842 E0.01182
G1 X38.318 Y48.576 E0.01182
G1 X38.052 Y48.309 E0.01182
G1 X38.318 Y48.042 E0.01182
G1 X38.852 Y48.576 E0.02365
G1 X38.585 Y48.842 E0.01182
G1 X38.852 Y49.109 E0.01182
G1 X39.118 Y48.842 E0.01182
G1 X39.652 Y49.375 E0.02365
G1 X39.385 Y49.642 E0.01182
G1 X39.118 Y49.375 E0.01182
G1 X38.585 Y49.909 E0.02365
G1 X38.852 Y50.175 E0.01182
G1 X39.118 Y49.909 E0.01182
G1 X39.385 Y50.175 E0.01182
G1 X39.118 Y50.442 E0.01182
G1 X39.385 Y50.709 E0.01182
G1 X39.918 Y50.175 E0.02365
G1 X39.652 Y49.909 E0.01182
G1 X39.918 Y49.642 E0.01182
G1 X40.185 Y49.909 E0.01182
G1 X40.718 Y49.375 E0.02365
G1 X40.452 Y49.109 E0.01182
G1 X40.185 Y49.375 E0.01182
G1 X39.652 Y48.842 E0.02365
G1 X39.918 Y48.576 E0.01182
G1 X40.185 Y48.842 E0.01182
G1 X40.452 Y48.576 E0.01182
G1 X40.185 Y48.309 E0.01182
G1 X40.452 Y48.042 E0.01182
G1 X40.985 Y48.576 E0.02365
G1 X40.718 Y48.842 E0.01182
G1 X40.985 Y49.109 E0.01182
G1 X41.518 Y48.576 E0.02365
G1 X41.251 Y48.309 E0.01182
G1 X41.518 Y48.042 E0.01182
G1 X41.785 Y48.309 E0.01182
G1 X42.318 Y47.776 E0.02365
G1 X42.051 Y47.509 E0.01182
G1 X41.785 Y47.776 E0.01182
G1 X41.518 Y47.509 E0.01182
G1 X41.785 Y47.242 E0.01182
G1 X41.518 Y46.976 E0.01182
G1 X40.985 Y47.509 E0.02365
G1 X41.251 Y47.776 E0.01182
G1 X40.985 Y48.042 E0.01182
G1 X40.185 Y47.242 E0.03547
G1 X40.452 Y46.976 E0.01182
G1 X40.718 Y47.242 E0.01182
G1 X41.251 Y46.709 E0.02365
G1 X40.985 Y46.443 E0.01182
G1 X40.718 Y46.709 E0.01182
G1 X40.452 Y46.443 E0.01182
G1 X40.718 Y46.176 E0.01182
G1 X40.452 Y45.909 E0.01182
G1 X39.918 Y46.443 E0.02365
G1 X40.185 Y46.709 E0.01182
G1 X39.918 Y46.976 E0.01182
G1 X39.652 Y46.709 E0.01182
G1 X39.118 Y47.242 E0.02365
G1 X39.385 Y47.509 E0.01182
G1 X39.652 Y47.242 E0.01182
G1 X40.185 Y47.776 E0.02365
G1 X39.918 Y48.042 E0.01182
G1 X39.652 Y47.776 E0.01182
G1 X39.385 Y48.042 E0.01182
G1 X39.652 Y48.309 E0.01182
G1 X39.385 Y48.576 E0.01182
G1 X38.852 Y48.042 E0.02365
G1 X39.118 Y47.776 E0.01182
G1 X38.852 Y47.509 E0.01182
G1 X38.585 Y47.776 E0.01182
G1 X38.052 Y47.242 E0.02365
G1 X38.318 Y46.976 E0.01182
G1 X38.585 Y47.242 E0.01182
G1 X39.118 Y46.709 E0.02365
G1 X38.852 Y46.443 E0.01182
G1 X38.585 Y46.709 E0.01182
G1 X38.318 Y46.443 E0.01182
G1 X38.585 Y46.176 E0.01182
G1 X38.318 Y45.909 E0.01182
G1 X37.785 Y46.443 E0.02365
G1 X38.052 Y46.709 E0.01182
G1 X37.785 Y46.976 E0.01182
G1 X37.252 Y46.443 E0.02365
G1 X37.519 Y46.176 E0.01182
G1 X37.252 Y45.909 E0.01182
G1 X36.985 Y46.176 E0.01182
G1 X36.452 Y45.643 E0.02365
G1 X36.719 Y45.376 E0.01182
G1 X36.985 Y45.643 E0.01182
G1 X37.252 Y45.376 E0.01182
G1 X36.985 Y45.109 E0.01182
G1 X37.252 Y44.843 E0.01182
G1 X37.785 Y45.376 E0.02365
G1 X37.519 Y45.643 E0.01182
G1 X37.785 Y45.909 E0.01182
G1 X38.052 Y45.643 E0.01182
G1 X38.585 Y45.109 E0.02365
G1 X38.318 Y44.843 E0.01182
G1 X38.052 Y45.109 E0.01182
G1 X37.519 Y44.576 E0.02365
G1 X37.785 Y44.309 E0.01182
G1 X38.052 Y44.576 E0.01182
G1 X38.318 Y44.309 E0.01182
G1 X38.052 Y44.043 E0.01182
G1 X38.318 Y43.776 E0.01182
G1 X38.852 Y44.309 E0.02365
G1 X38.585 Y44.576 E0.01182
G1 X38.852 Y44.843 E0.01182
G1 X39.118 Y44.576 E0.01182
G1 X39.652 Y45.109 E0.02365
G1 X39.385 Y45.376 E0.01182
G1 X39.118 Y45.109 E0.01182
G1 X38.585 Y45.643 E0.02365
G1 X38.852 Y45.909 E0.01182
G1 X39.118 Y45.643 E0.01182
G1 X39.385 Y45.909 E0.01182
G1 X39.118 Y46.176 E0.01182
G1 X39.385 Y46.443 E0.01182
G1 X39.652 Y46.176 E0.01182
G1 X39.918 Y45.909 E0.01182
G1 X39.652 Y45.643 E0.01182
G1 X39.918 Y45.376 E0.01182
G1 X40.185 Y45.643 E0.01182
G1 X40.452 Y45.376 E0.01182
G1 X40.185 Y45.109 E0.01182
G1 X40.452 Y44.843 E0.01182
G1 X40.718 Y45.109 E0.01182
G1 X41.251 Y44.576 E0.02365
G1 X40.985 Y44.309 E0.01182
G1 X40.718 Y44.576 E0.01182
G1 X40.452 Y44.309 E0.01182
G1 X40.718 Y44.043 E0.01182
G1 X40.452 Y43.776 E0.01182
G1 X39.918 Y44.309 E0.02365
G1 X40.185 Y44.576 E0.01182
G1 X39.918 Y44.843 E0.01182
G1 X39.385 Y44.309 E0.02365
G1 X39.652 Y44.043 E0.01182
G1 X39.385 Y43.776 E0.01182
G1 X39.118 Y44.043 E0.01182
G1 X38.585 Y43.510 E0.02365
G1 X38.852 Y43.243 E0.01182
G1 X39.118 Y43.510 E0.01182
G1 X39.385 Y43.243 E0.01182
G1 X39.118 Y42.976 E0.01182
G1 X39.385 Y42.710 E0.01182
G1 X39.918 Y43.243 E0.02365
G1 X39.652 Y43.510 E0.01182
G1 X39.918 Y43.776 E0.01182
G1 X40.718 Y42.976 E0.03547
G1 X40.452 Y42.710 E0.01182
G1 X40.185 Y42.976 E0.01182
G1 X39.652 Y42.443 E0.02365
G1 X39.918 Y42.176 E0.01182
G1 X40.185 Y42.443 E0.01182
G1 X40.452 Y42.176 E0.01182
G1 X40.185 Y41.910 E0.01182
G1 X40.452 Y41.643 E0.01182
G1 X40.985 Y42.176 E0.02365
G1 X40.718 Y42.443 E0.01182
G1 X40.985 Y42.710 E0.01182
G1 X41.251 Y42.443 E0.01182
G1 X41.785 Y42.976 E0.02365
G1 X41.518 Y43.243 E0.01182
G1 X41.251 Y42.976 E0.01182
G1 X40.718 Y43.510 E0.02365
G1 X40.985 Y43.776 E0.01182
G1 X41.251 Y43.510 E0.01182
G1 X41.518 Y43.776 E0.01182
G1 X41.251 Y44.043 E0.01182
G1 X41.518 Y44.309 E0.01182
G1 X42.051 Y43.776 E0.02365
G1 X41.785 Y43.510 E0.01182
G1 X42.051 Y43.243 E0.01182
G1 X42.585 Y43.776 E0.02365
G1 X42.318 Y44.043 E0.01182
G1 X42.585 Y44.309 E0.01182
G1 X42.851 Y44.043 E0.01182
G1 X43.385 Y44.576 E0.02365
G1 X43.118 Y44.843 E0.01182
G1 X42.851 Y44.576 E0.01182
G1 X42.585 Y44.843 E0.01182
G1 X42.851 Y45.109 E0.01182
G1 X42.585 Y45.376 E0.01182
G1 X42.051 Y44.843 E0.02365
G1 X42.318 Y44.576 E0.01182
G1 X42.051 Y44.309 E0.01182
G1 X41.518 Y44.843 E0.02365
G1 X41.785 Y45.109 E0.01182
G1 X41.518 Y45.376 E0.01182
G1 X41.251 Y45.109 E0.01182
G1 X40.718 Y45.643 E0.02365
G1 X40.985 Y45.909 E0.01182
G1 X41.251 Y45.643 E0.01182
G1 X41.518 Y45.909 E0.01182
G1 X41.251 Y46.176 E0.01182
G1 X41.518 Y46.443 E0.01182
G1 X42.051 Y45.909 E0.02365
G1 X41.785 Y45.643 E0.01182
G1 X42.051 Y45.376 E0.01182
G1 X42.318 Y45.643 E0.01182
G1 X42.851 Y46.176 E0.02365
G1 X42.585 Y46.443 E0.01182
G1 X42.318 Y46.176 E0.01182
G1 X41.785 Y46.709 E0.02365
G1 X42.051 Y46.976 E0.01182
G1 X42.318 Y46.709 E0.01182
G1 X42.585 Y46.976 E0.01182
G1 X42.318 Y47.242 E0.01182
G1 X42.585 Y47.509 E0.01182
G1 X43.118 Y46.976 E0.02365
G1 X42.851 Y46.709 E0.01182
G1 X43.118 Y46.443 E0.01182
G1 X43.385 Y46.709 E0.01182
G1 X43.918 Y46.176 E0.02365
G1 X43.651 Y45.909 E0.01182
G1 X43.385 Y46.176 E0.01182
G1 X42.851 Y45.643 E0.02365
G1 X43.118 Y45.376 E0.01182
G1 X43.385 Y45.643 E0.01182
G1 X43.651 Y45.376 E0.01182
G1 X43.385 Y45.109 E0.01182
G1 X43.651 Y44.843 E0.01182
G1 X43.918 Y45.109 E0.01182
G1 X44.184 Y45.376 E0.01182
G1 X43.918 Y45.643 E0.01182
G1 X44.184 Y45.909 E0.01182
G1 X44.451 Y45.643 E0.01182
G1 X44.718 Y45.909 E0.01182
G1 X44.451 Y46.176 E0.01182
G1 X44.718 Y46.443 E0.01182
G1 X44.984 Y46.176 E0.01182
