; generated by Slic3r 1.35.5-prusa3d-linux64 on 2018-03-04 at 01:13:22

; 

; external perimeters extrusion width = 0.45mm
; perimeters extrusion width = 0.45mm
; infill extrusion width = 0.45mm
; solid infill extrusion width = 0.45mm
; top infill extrusion width = 0.40mm
; support material extrusion width = 0.35mm
; first layer extrusion width = 0.42mm

M107
M115 U3.0.9 ; tell printer latest fw version
M83  ; extruder relative mode
M104 S215 ; set extruder temp
M140 S55 ; set bed temp
M190 S55 ; wait for bed temp
M109 S215 ; wait for extruder temp
G28 W ; home all without mesh bed level
G80 ; mesh bed leveling
G1 Y-3.0 F1000.0 ; go outside pritn area
G1 X60.0 E9.0  F1000.0 ; intro line
G1 X100.0 E12.5  F1000.0 ; intro line
; Filament gcode

G21 ; set units to millimeters
G90 ; use absolute coordinates
M83 ; use relative distances for extrusion
G1 E-0.80000 F2100.00000
G1 Z0.200 F7200.000
G1 X16.110 Y11.484 F7200.000
G1 E0.80000 F2100.00000
M204 S1000
G1 F900
G1 X16.734 Y10.957 E0.02560
G1 X17.440 Y10.612 E0.02466
G1 X18.246 Y10.443 E0.02581
G1 X38.284 Y10.433 E0.62829
G1 X117.028 Y10.709 E2.46897
G1 X117.727 Y10.788 E0.02204
G1 X118.401 Y11.021 E0.02238
G1 X119.133 Y11.498 E0.02738
G1 X119.727 Y12.179 E0.02834
G1 X120.103 Y12.971 E0.02749
G1 X120.253 Y13.827 E0.02726
G1 X120.146 Y48.054 E1.07317
G1 X120.064 Y48.747 E0.02188
G1 X119.832 Y49.418 E0.02226
G1 X119.323 Y50.184 E0.02881
G1 X118.650 Y50.757 E0.02773
G1 X117.844 Y51.129 E0.02784
G1 X116.939 Y51.268 E0.02869
G1 X64.284 Y51.467 E1.65099
G1 X44.487 Y51.467 E0.62071
G1 X17.926 Y51.381 E0.83280
G1 X17.149 Y51.277 E0.02457
G1 X16.438 Y51.000 E0.02392
G1 X15.753 Y50.510 E0.02643
G1 X15.206 Y49.844 E0.02702
G1 X14.856 Y49.064 E0.02681
G1 X14.722 Y48.186 E0.02783
G1 X14.723 Y33.341 E0.46547
G1 X15.261 Y13.536 E0.62120
G1 X15.370 Y12.828 E0.02246
G1 X15.639 Y12.151 E0.02285
G1 X16.076 Y11.533 E0.02372
G1 F5760
G1 X16.734 Y10.957 E-0.30293
G1 F5760
G1 X17.440 Y10.612 E-0.27238
G1 F5760
G1 X17.962 Y10.503 E-0.18469
G1 E-0.04000 F2100.00000
G1 X85.488 Y43.820 F7200.000
G1 E0.80000 F2100.00000
G1 F360
G1 X85.659 Y43.508 E0.01114
G1 X85.856 Y43.273 E0.00962
G1 X86.128 Y43.054 E0.01096
G1 X86.400 Y42.912 E0.00960
G1 X86.687 Y42.821 E0.00944
G1 X87.034 Y42.783 E0.01096
G1 X87.346 Y42.809 E0.00980
G1 X87.694 Y42.910 E0.01136
G1 X88.011 Y43.084 E0.01134
G1 X88.246 Y43.282 E0.00962
G1 X88.465 Y43.554 E0.01096
G1 X88.610 Y43.831 E0.00980
G1 X88.710 Y44.172 E0.01116
G1 X88.736 Y44.472 E0.00944
G1 X88.710 Y44.772 E0.00944
G1 X88.610 Y45.113 E0.01114
G1 X88.469 Y45.386 E0.00964
G1 X88.246 Y45.663 E0.01114
G1 X88.011 Y45.860 E0.00964
G1 X87.699 Y46.031 E0.01114
G1 X87.406 Y46.123 E0.00964
G1 X87.047 Y46.163 E0.01134
G1 X86.687 Y46.123 E0.01134
G1 X86.394 Y46.031 E0.00964
G1 X86.083 Y45.860 E0.01114
G1 X85.847 Y45.663 E0.00964
G1 X85.625 Y45.386 E0.01114
G1 X85.483 Y45.113 E0.00964
G1 X85.384 Y44.772 E0.01114
G1 X85.357 Y44.466 E0.00964
G1 X85.396 Y44.113 E0.01114
G1 X85.470 Y43.877 E0.00776
G1 X85.830 Y43.990 F7200.000
G1 F360
G1 X85.972 Y43.722 E0.00951
G1 X86.121 Y43.544 E0.00730
G1 X86.336 Y43.371 E0.00865
G1 X86.545 Y43.261 E0.00739
G1 X86.765 Y43.192 E0.00724
G1 X87.039 Y43.161 E0.00865
G1 X87.276 Y43.182 E0.00746
G1 X87.549 Y43.261 E0.00889
G1 X87.797 Y43.397 E0.00888
G1 X87.975 Y43.547 E0.00730
G1 X88.148 Y43.762 E0.00865
G1 X88.259 Y43.972 E0.00746
G1 X88.337 Y44.242 E0.00882
G1 X88.358 Y44.472 E0.00724
G1 X88.337 Y44.702 E0.00724
G1 X88.259 Y44.972 E0.00881
G1 X88.151 Y45.179 E0.00731
G1 X87.975 Y45.398 E0.00881
G1 X87.797 Y45.548 E0.00731
G1 X87.551 Y45.683 E0.00881
G1 X87.328 Y45.753 E0.00731
G1 X87.047 Y45.784 E0.00888
G1 X86.765 Y45.753 E0.00888
G1 X86.543 Y45.683 E0.00731
G1 X86.297 Y45.548 E0.00881
G1 X86.118 Y45.398 E0.00731
G1 X85.942 Y45.179 E0.00881
G1 X85.835 Y44.972 E0.00731
G1 X85.756 Y44.702 E0.00881
G1 X85.736 Y44.470 E0.00731
G1 X85.766 Y44.191 E0.00881
G1 X85.812 Y44.047 E0.00471
G1 X85.644 Y43.750 F7200.000
G1 F5760
G1 X85.972 Y43.722 E-0.12555
G1 F5760
G1 X86.121 Y43.544 E-0.08067
G1 F5760
G1 X86.336 Y43.371 E-0.09553
G1 F5760
G1 X86.545 Y43.261 E-0.08166
G1 F5760
G1 X86.765 Y43.192 E-0.07997
G1 F5760
G1 X87.039 Y43.161 E-0.09553
G1 F5760
G1 X87.276 Y43.182 E-0.08246
G1 F5760
G1 X87.549 Y43.261 E-0.09818
G1 F5760
G1 X87.600 Y43.289 E-0.02045
G1 E-0.04000 F2100.00000
G1 X76.037 Y44.479 F7200.000
G1 E0.80000 F2100.00000
G1 F360
G1 X75.998 Y44.832 E0.01114
G1 X75.906 Y45.124 E0.00962
G1 X75.738 Y45.431 E0.01096
G1 X75.542 Y45.666 E0.00960
G1 X75.311 Y45.860 E0.00946
G1 X74.999 Y46.031 E0.01114
G1 X74.706 Y46.123 E0.00964
G1 X74.347 Y46.163 E0.01134
G1 X73.987 Y46.123 E0.01134
G1 X73.694 Y46.031 E0.00964
G1 X73.383 Y45.860 E0.01114
G1 X73.148 Y45.663 E0.00962
G1 X72.928 Y45.391 E0.01096
G1 X72.783 Y45.114 E0.00980
G1 X72.684 Y44.772 E0.01116
G1 X72.657 Y44.466 E0.00962
G1 X72.694 Y44.119 E0.01096
G1 X72.788 Y43.820 E0.00980
G1 X72.959 Y43.508 E0.01116
G1 X73.152 Y43.278 E0.00944
G1 X73.383 Y43.084 E0.00944
G1 X73.694 Y42.913 E0.01114
G1 X73.987 Y42.821 E0.00962
G1 X74.334 Y42.783 E0.01096
G1 X74.646 Y42.809 E0.00980
G1 X74.994 Y42.910 E0.01136
G1 X75.311 Y43.084 E0.01134
G1 X75.546 Y43.282 E0.00964
G1 X75.769 Y43.559 E0.01114
G1 X75.910 Y43.832 E0.00964
G1 X76.010 Y44.172 E0.01114
G1 X76.031 Y44.419 E0.00776
G1 X75.656 Y44.452 F7200.000
G1 F360
G1 X75.627 Y44.754 E0.00951
G1 X75.557 Y44.976 E0.00730
G1 X75.425 Y45.218 E0.00865
G1 X75.274 Y45.399 E0.00739
G1 X75.097 Y45.548 E0.00725
G1 X74.851 Y45.683 E0.00881
G1 X74.628 Y45.753 E0.00731
G1 X74.347 Y45.784 E0.00888
G1 X74.065 Y45.753 E0.00888
G1 X73.843 Y45.683 E0.00731
G1 X73.597 Y45.548 E0.00881
G1 X73.418 Y45.398 E0.00730
G1 X73.245 Y45.183 E0.00865
G1 X73.135 Y44.972 E0.00746
G1 X73.056 Y44.702 E0.00882
G1 X73.036 Y44.470 E0.00730
G1 X73.065 Y44.196 E0.00865
G1 X73.136 Y43.969 E0.00746
G1 X73.272 Y43.722 E0.00882
G1 X73.420 Y43.545 E0.00724
G1 X73.597 Y43.397 E0.00724
G1 X73.843 Y43.262 E0.00881
G1 X74.065 Y43.192 E0.00730
G1 X74.339 Y43.161 E0.00865
G1 X74.576 Y43.182 E0.00746
G1 X74.849 Y43.261 E0.00889
G1 X75.097 Y43.397 E0.00888
G1 X75.275 Y43.547 E0.00731
G1 X75.451 Y43.766 E0.00881
G1 X75.559 Y43.973 E0.00731
G1 X75.637 Y44.242 E0.00881
G1 X75.651 Y44.392 E0.00471
G1 X75.919 Y44.603 F7200.000
G1 F5760
G1 X75.627 Y44.754 E-0.12555
G1 F5760
G1 X75.557 Y44.976 E-0.08067
G1 F5760
G1 X75.425 Y45.218 E-0.09553
G1 F5760
G1 X75.274 Y45.399 E-0.08166
G1 F5760
G1 X75.097 Y45.548 E-0.08004
G1 F5760
G1 X74.851 Y45.683 E-0.09728
G1 F5760
G1 X74.628 Y45.753 E-0.08074
G1 F5760
G1 X74.347 Y45.784 E-0.09808
G1 F5760
G1 X74.288 Y45.777 E-0.02045
G1 E-0.04000 F2100.00000
G1 X70.958 Y47.861 F7200.000
G1 E0.80000 F2100.00000
G1 F720
G1 X70.958 Y33.464 E0.45140
G1 X90.435 Y33.464 E0.61068
G1 X90.435 Y47.861 E0.45139
G1 X71.018 Y47.861 E0.60880
G1 X70.716 Y48.212 F7200.000
G1 F540
G1 X70.625 Y48.140 E0.00364
G1 X70.581 Y47.994 E0.00478
G1 X70.581 Y33.335 E0.45961
G1 X70.607 Y33.222 E0.00365
G1 X70.679 Y33.131 E0.00364
G1 X70.825 Y33.087 E0.00478
G1 X90.577 Y33.087 E0.61931
G1 X90.670 Y33.107 E0.00299
G1 X90.743 Y33.156 E0.00275
G1 X90.791 Y33.228 E0.00271
G1 X90.812 Y33.333 E0.00337
G1 X90.812 Y47.987 E0.45947
G1 X90.781 Y48.116 E0.00416
G1 X90.716 Y48.193 E0.00314
G1 X90.568 Y48.238 E0.00485
G1 X70.775 Y48.225 E0.62062
G1 X70.708 Y48.097 F7200.000
G1 X71.241 Y47.494 F7200.000
G1 F720
G1 X71.407 Y47.328 E0.00734
G1 X71.656 Y47.578 E0.01107
G1 X71.690 Y47.578 F7200.000
G1 F720
G1 X72.207 Y47.062 E0.02289
G1 X71.940 Y46.795 E0.01182
G1 X71.673 Y47.062 E0.01182
G1 X71.407 Y46.795 E0.01182
G1 X71.673 Y46.528 E0.01182
G1 X71.407 Y46.262 E0.01182
G1 X71.241 Y46.427 E0.00734
G1 X71.241 Y45.563 F7200.000
G1 F720
G1 X71.407 Y45.728 E0.00734
G1 X71.940 Y45.195 E0.02365
G1 X71.673 Y44.928 E0.01182
G1 X71.940 Y44.662 E0.01182
G1 X72.543 Y45.265 E0.02674
G1 X72.679 Y45.523 F7200.000
G1 F720
G1 X72.473 Y45.728 E0.00910
G1 X72.207 Y45.462 E0.01182
G1 X71.673 Y45.995 E0.02365
G1 X71.940 Y46.262 E0.01182
G1 X72.207 Y45.995 E0.01182
G1 X72.473 Y46.262 E0.01182
G1 X72.207 Y46.528 E0.01182
G1 X72.473 Y46.795 E0.01182
G1 X73.007 Y46.262 E0.02365
G1 X72.740 Y45.995 E0.01182
G1 X72.913 Y45.822 E0.00766
G1 X73.556 Y46.278 F7200.000
G1 F720
G1 X73.807 Y46.528 E0.01110
G1 X73.540 Y46.795 E0.01182
G1 X73.273 Y46.528 E0.01182
G1 X72.740 Y47.062 E0.02365
G1 X73.007 Y47.328 E0.01182
G1 X73.273 Y47.062 E0.01182
G1 X73.540 Y47.328 E0.01182
G1 X73.290 Y47.578 E0.01107
G1 X73.823 Y47.578 F7200.000
G1 F720
G1 X74.073 Y47.328 E0.01107
G1 X73.807 Y47.062 E0.01182
G1 X74.073 Y46.795 E0.01182
G1 X74.856 Y47.578 E0.03472
G1 X75.389 Y47.578 F7200.000
G1 F720
G1 X74.873 Y47.062 E0.02289
G1 X75.140 Y46.795 E0.01182
G1 X75.406 Y47.062 E0.01182
G1 X75.673 Y46.795 E0.01182
G1 X75.406 Y46.528 E0.01182
G1 X75.673 Y46.262 E0.01182
G1 X76.206 Y46.795 E0.02365
G1 X75.940 Y47.062 E0.01182
G1 X76.206 Y47.328 E0.01182
G1 X76.740 Y46.795 E0.02365
G1 X76.473 Y46.528 E0.01182
G1 X76.740 Y46.262 E0.01182
G1 X77.006 Y46.528 E0.01182
G1 X77.539 Y45.995 E0.02365
G1 X77.273 Y45.728 E0.01182
G1 X77.006 Y45.995 E0.01182
G1 X76.740 Y45.728 E0.01182
G1 X77.006 Y45.462 E0.01182
G1 X76.740 Y45.195 E0.01182
G1 X76.206 Y45.728 E0.02365
G1 X76.473 Y45.995 E0.01182
G1 X76.206 Y46.262 E0.01182
G1 X75.774 Y45.829 E0.01916
G1 X76.186 Y45.175 F7200.000
G1 F720
G1 X76.206 Y45.195 E0.00089
G1 X77.006 Y44.395 E0.03547
G1 X76.740 Y44.129 E0.01182
G1 X76.473 Y44.395 E0.01182
G1 X76.298 Y44.220 E0.00776
G1 X76.141 Y43.661 F7200.000
G1 F720
G1 X76.206 Y43.595 E0.00291
G1 X76.473 Y43.862 E0.01182
G1 X76.740 Y43.595 E0.01182
G1 X76.473 Y43.329 E0.01182
G1 X76.740 Y43.062 E0.01182
G1 X77.273 Y43.595 E0.02365
G1 X77.006 Y43.862 E0.01182
G1 X77.273 Y44.129 E0.01182
G1 X77.539 Y43.862 E0.01182
G1 X78.073 Y44.395 E0.02365
G1 X77.806 Y44.662 E0.01182
G1 X77.539 Y44.395 E0.01182
G1 X77.006 Y44.928 E0.02365
G1 X77.273 Y45.195 E0.01182
G1 X77.539 Y44.928 E0.01182
G1 X77.806 Y45.195 E0.01182
G1 X77.539 Y45.462 E0.01182
G1 X77.806 Y45.728 E0.01182
G1 X78.339 Y45.195 E0.02365
G1 X78.073 Y44.928 E0.01182
G1 X78.339 Y44.662 E0.01182
G1 X78.606 Y44.928 E0.01182
G1 X79.139 Y44.395 E0.02365
G1 X78.873 Y44.129 E0.01182
G1 X78.606 Y44.395 E0.01182
G1 X78.073 Y43.862 E0.02365
G1 X78.339 Y43.595 E0.01182
G1 X78.606 Y43.862 E0.01182
G1 X78.873 Y43.595 E0.01182
G1 X78.606 Y43.329 E0.01182
G1 X78.873 Y43.062 E0.01182
G1 X79.406 Y43.595 E0.02365
G1 X79.139 Y43.862 E0.01182
G1 X79.406 Y44.129 E0.01182
G1 X79.939 Y43.595 E0.02365
G1 X79.672 Y43.329 E0.01182
G1 X79.939 Y43.062 E0.01182
G1 X80.206 Y43.329 E0.01182
G1 X80.739 Y42.795 E0.02365
G1 X80.472 Y42.529 E0.01182
G1 X80.206 Y42.795 E0.01182
G1 X79.939 Y42.529 E0.01182
G1 X80.206 Y42.262 E0.01182
G1 X79.939 Y41.995 E0.01182
G1 X79.406 Y42.529 E0.02365
G1 X79.672 Y42.795 E0.01182
G1 X79.406 Y43.062 E0.01182
G1 X78.606 Y42.262 E0.03547
G1 X78.873 Y41.995 E0.01182
G1 X79.139 Y42.262 E0.01182
G1 X79.672 Y41.729 E0.02365
G1 X79.406 Y41.462 E0.01182
G1 X79.139 Y41.729 E0.01182
G1 X78.873 Y41.462 E0.01182
G1 X79.139 Y41.196 E0.01182
G1 X78.873 Y40.929 E0.01182
G1 X78.339 Y41.462 E0.02365
G1 X78.606 Y41.729 E0.01182
G1 X78.339 Y41.995 E0.01182
G1 X78.073 Y41.729 E0.01182
G1 X77.539 Y42.262 E0.02365
G1 X77.806 Y42.529 E0.01182
G1 X78.073 Y42.262 E0.01182
G1 X78.606 Y42.795 E0.02365
G1 X78.339 Y43.062 E0.01182
G1 X78.073 Y42.795 E0.01182
G1 X77.806 Y43.062 E0.01182
G1 X78.073 Y43.329 E0.01182
G1 X77.806 Y43.595 E0.01182
G1 X77.273 Y43.062 E0.02365
G1 X77.539 Y42.795 E0.01182
G1 X77.273 Y42.529 E0.01182
G1 X77.006 Y42.795 E0.01182
G1 X76.473 Y42.262 E0.02365
G1 X76.740 Y41.995 E0.01182
G1 X77.006 Y42.262 E0.01182
G1 X77.539 Y41.729 E0.02365
G1 X77.273 Y41.462 E0.01182
G1 X77.006 Y41.729 E0.01182
G1 X76.740 Y41.462 E0.01182
G1 X77.006 Y41.196 E0.01182
G1 X76.740 Y40.929 E0.01182
G1 X76.206 Y41.462 E0.02365
G1 X76.473 Y41.729 E0.01182
G1 X76.206 Y41.995 E0.01182
G1 X75.673 Y41.462 E0.02365
G1 X75.940 Y41.196 E0.01182
G1 X75.673 Y40.929 E0.01182
G1 X75.406 Y41.196 E0.01182
G1 X74.873 Y40.662 E0.02365
G1 X75.140 Y40.396 E0.01182
G1 X75.406 Y40.662 E0.01182
G1 X75.673 Y40.396 E0.01182
G1 X75.406 Y40.129 E0.01182
G1 X75.673 Y39.862 E0.01182
G1 X76.206 Y40.396 E0.02365
G1 X75.940 Y40.662 E0.01182
G1 X76.206 Y40.929 E0.01182
G1 X76.473 Y40.662 E0.01182
G1 X77.006 Y40.129 E0.02365
G1 X76.740 Y39.862 E0.01182
G1 X76.473 Y40.129 E0.01182
G1 X75.940 Y39.596 E0.02365
G1 X76.206 Y39.329 E0.01182
G1 X76.473 Y39.596 E0.01182
G1 X76.740 Y39.329 E0.01182
G1 X76.473 Y39.062 E0.01182
G1 X76.740 Y38.796 E0.01182
G1 X77.273 Y39.329 E0.02365
G1 X77.006 Y39.596 E0.01182
G1 X77.273 Y39.862 E0.01182
G1 X77.539 Y39.596 E0.01182
G1 X78.073 Y40.129 E0.02365
G1 X77.806 Y40.396 E0.01182
G1 X77.539 Y40.129 E0.01182
G1 X77.006 Y40.662 E0.02365
G1 X77.273 Y40.929 E0.01182
G1 X77.539 Y40.662 E0.01182
G1 X77.806 Y40.929 E0.01182
G1 X77.539 Y41.196 E0.01182
G1 X77.806 Y41.462 E0.01182
G1 X78.073 Y41.196 E0.01182
G1 X78.339 Y40.929 E0.01182
G1 X78.073 Y40.662 E0.01182
G1 X78.339 Y40.396 E0.01182
G1 X78.606 Y40.662 E0.01182
G1 X78.873 Y40.396 E0.01182
G1 X78.606 Y40.129 E0.01182
G1 X78.873 Y39.862 E0.01182
G1 X79.139 Y40.129 E0.01182
G1 X79.672 Y39.596 E0.02365
G1 X79.406 Y39.329 E0.01182
G1 X79.139 Y39.596 E0.01182
G1 X78.873 Y39.329 E0.01182
G1 X79.139 Y39.062 E0.01182
G1 X78.873 Y38.796 E0.01182
G1 X78.339 Y39.329 E0.02365
G1 X78.606 Y39.596 E0.01182
G1 X78.339 Y39.862 E0.01182
G1 X77.806 Y39.329 E0.02365
G1 X78.073 Y39.062 E0.01182
G1 X77.806 Y38.796 E0.01182
G1 X77.539 Y39.062 E0.01182
G1 X77.006 Y38.529 E0.02365
G1 X77.273 Y38.263 E0.01182
G1 X77.539 Y38.529 E0.01182
G1 X77.806 Y38.263 E0.01182
G1 X77.539 Y37.996 E0.01182
G1 X77.806 Y37.729 E0.01182
G1 X78.339 Y38.263 E0.02365
G1 X78.073 Y38.529 E0.01182
G1 X78.339 Y38.796 E0.01182
G1 X79.139 Y37.996 E0.03547
G1 X78.873 Y37.729 E0.01182
G1 X78.606 Y37.996 E0.01182
G1 X78.073 Y37.463 E0.02365
G1 X78.339 Y37.196 E0.01182
G1 X78.606 Y37.463 E0.01182
G1 X78.873 Y37.196 E0.01182
G1 X78.606 Y36.929 E0.01182
G1 X78.873 Y36.663 E0.01182
G1 X79.406 Y37.196 E0.02365
G1 X79.139 Y37.463 E0.01182
G1 X79.406 Y37.729 E0.01182
G1 X79.672 Y37.463 E0.01182
G1 X80.206 Y37.996 E0.02365
G1 X79.939 Y38.263 E0.01182
G1 X79.672 Y37.996 E0.01182
G1 X79.139 Y38.529 E0.02365
G1 X79.406 Y38.796 E0.01182
G1 X79.672 Y38.529 E0.01182
G1 X79.939 Y38.796 E0.01182
G1 X79.672 Y39.062 E0.01182
G1 X79.939 Y39.329 E0.01182
G1 X80.472 Y38.796 E0.02365
G1 X80.206 Y38.529 E0.01182
G1 X80.472 Y38.263 E0.01182
G1 X81.006 Y38.796 E0.02365
G1 X80.739 Y39.062 E0.01182
G1 X81.006 Y39.329 E0.01182
G1 X81.272 Y39.062 E0.01182
G1 X81.806 Y39.596 E0.02365
G1 X81.539 Y39.862 E0.01182
G1 X81.272 Y39.596 E0.01182
G1 X81.006 Y39.862 E0.01182
G1 X81.272 Y40.129 E0.01182
G1 X81.006 Y40.396 E0.01182
G1 X80.472 Y39.862 E0.02365
G1 X80.739 Y39.596 E0.01182
G1 X80.472 Y39.329 E0.01182
G1 X79.939 Y39.862 E0.02365
G1 X80.206 Y40.129 E0.01182
G1 X79.939 Y40.396 E0.01182
G1 X79.672 Y40.129 E0.01182
G1 X79.139 Y40.662 E0.02365
G1 X79.406 Y40.929 E0.01182
G1 X79.672 Y40.662 E0.01182
G1 X79.939 Y40.929 E0.01182
G1 X79.672 Y41.196 E0.01182
G1 X79.939 Y41.462 E0.01182
G1 X80.472 Y40.929 E0.02365
G1 X80.206 Y40.662 E0.01182
G1 X80.472 Y40.396 E0.01182
G1 X80.739 Y40.662 E0.01182
G1 X81.272 Y41.196 E0.02365
G1 X81.006 Y41.462 E0.01182
G1 X80.739 Y41.196 E0.01182
G1 X80.206 Y41.729 E0.02365
G1 X80.472 Y41.995 E0.01182
G1 X80.739 Y41.729 E0.01182
G1 X81.006 Y41.995 E0.01182
G1 X80.739 Y42.262 E0.01182
G1 X81.006 Y42.529 E0.01182
G1 X81.539 Y41.995 E0.02365
G1 X81.272 Y41.729 E0.01182
G1 X81.539 Y41.462 E0.01182
G1 X81.806 Y41.729 E0.01182
G1 X82.339 Y41.196 E0.02365
G1 X82.072 Y40.929 E0.01182
G1 X81.806 Y41.196 E0.01182
G1 X81.272 Y40.662 E0.02365
G1 X81.539 Y40.396 E0.01182
G1 X81.806 Y40.662 E0.01182
G1 X82.072 Y40.396 E0.01182
G1 X81.806 Y40.129 E0.01182
G1 X82.072 Y39.862 E0.01182
G1 X82.339 Y40.129 E0.01182
G1 X82.605 Y40.396 E0.01182
G1 X82.339 Y40.662 E0.01182
G1 X82.605 Y40.929 E0.01182
G1 X82.872 Y40.662 E0.01182
G1 X83.139 Y40.929 E0.01182
G1 X82.872 Y41.196 E0.01182
G1 X83.139 Y41.462 E0.01182
